X: 108201
Q:"Strathspey."
M: C
L: 1/16
K: G
uF2 |\
uf2 |\
d3fA3f d3fA3f | =c3de3f g4 (agfe) |
d3fA3f d3fA3f | d3ef3g a4 (bagf) |\
d3fA3f d3fA3f | =c3de3f g4 (3(e2f2g2) |\
va3vf ug3ue f3d e3c | d3B A3G (G3F) E2 |]


